public/media/Asset 14.svg

<svg xmlns="http://www.w3.org/2000/svg" viewBox="0 0 530 404.5"><defs><style>.cls-1,.cls-2{fill:#960;stroke:#000;stroke-miterlimit:10}.cls-2{fill:#069}.cls-3,.cls-7{font-size:13.87px;font-family:MyriadPro-Regular,Myriad Pro}.cls-3{fill:#fff}</style></defs><g id="Layer_2" data-name="Layer 2"><g id="Layer_1-2" data-name="Layer 1"><ellipse class="cls-1" cx="307.22" cy="34.03" rx="33.31" ry="33.53"/><ellipse class="cls-2" cx="246.33" cy="256.59" rx="33.31" ry="33.53"/><ellipse class="cls-2" cx="349.72" cy="256.59" rx="33.31" ry="33.53"/><ellipse class="cls-2" cx="33.81" cy="370.47" rx="33.31" ry="33.53"/><ellipse class="cls-2" cx="153.28" cy="370.47" rx="33.31" ry="33.53"/><text class="cls-3" transform="matrix(.99 0 0 1 307.5 35.97)">2</text><text class="cls-3" transform="matrix(.99 0 0 1 242.89 262.37)">12</text><text class="cls-3" transform="matrix(.99 0 0 1 343.98 262.37)">25</text><text class="cls-3" transform="matrix(.99 0 0 1 28.07 376.25)">55</text><text class="cls-3" transform="matrix(.99 0 0 1 147.74 377.46)">70</text><path d="M279.36 58.02l-57.44 55.49m106.84-53.76l79.83 50.3M289.12 62.07l-76.39 57.23m-4.02 50.29l33.89 59.54m36.76-176.31L111.64 234.91M279.36 58.02l-57.44 55.49m52.27 19.66h-.57m5.74-75.15h-.57m-56.87 55.49l56.87-55.49M212.73 166.7l26.42 56.65M85.79 286.36l-35.03 50.87m63.75-50.29l33.32 50.29m-33.32-50.29l58.02 87.29M275.34 43c-35.15 0-70.65 31.37-70.65 62.43" fill="none"/><path d="M279.65 53.11l-66.63 66.47m122.34-67.05l73.52 57.81m37.91 53.76l43.65 65.9m-85.01-63.59l-46.52 56.65M209 169.88l29.87 53.18m-68.35-60.12l-59.17 71.68m8.62 45.09l27.57 57.23m-72.95-58.96l-40.78 58.96" fill="none" stroke="#000" stroke-miterlimit="10"/><ellipse class="cls-1" cx="100.44" cy="256.59" rx="33.31" ry="33.53"/><text class="cls-3" transform="matrix(.99 0 0 1 94.7 262.37)">17</text><ellipse class="cls-1" cx="194.06" cy="139.24" rx="33.31" ry="33.53"/><ellipse class="cls-1" cx="424.96" cy="139.24" rx="33.31" ry="33.53"/><text class="cls-3" transform="matrix(.99 0 0 1 190.5 141.95)">7</text><text class="cls-3" transform="matrix(.99 0 0 1 419.22 145.02)">10</text><ellipse class="cls-2" cx="496.19" cy="256.59" rx="33.31" ry="33.53"/><text class="cls-3" transform="matrix(.99 0 0 1 490.67 262.27)">50</text><path fill="#fff" d="M245.47 325.09h26.42v10.98h-26.42z"/><text class="cls-7" transform="matrix(.99 0 0 1 420.06 23.33)"><tspan letter-spacing="-.03em">P</tspan><tspan x="7.02" y="0">a</tspan><tspan x="13.71" y="0" letter-spacing="-.01em">r</tspan><tspan x="18.11" y="0">e</tspan><tspan x="25.06" y="0" letter-spacing="0">n</tspan><tspan x="32.7" y="0">t node</tspan></text><text class="cls-7" transform="matrix(.99 0 0 1 419.87 45.33)">Child node</text><ellipse class="cls-1" cx="404.29" cy="17.55" rx="5.74" ry="6.07"/><ellipse class="cls-2" cx="404.29" cy="39.52" rx="5.74" ry="6.07"/></g></g></svg>

<svg xmlns="http://www.w3.org/2000/svg" viewBox="0 0 530 404.5"><defs><style>.cls-1{fill:#960}.cls-1,.cls-2,.cls-5{stroke:#000;stroke-miterlimit:10}.cls-2{fill:#069}.cls-3,.cls-7{font-size:13.87px;font-family:MyriadPro-Regular,Myriad Pro}.cls-3{fill:#fff}.cls-4,.cls-5{fill:none}</style></defs><g id="Layer_2" data-name="Layer 2"><g id="Layer_1-2" data-name="Layer 1"><ellipse class="cls-1" cx="307.22" cy="34.03" rx="33.31" ry="33.53"/><ellipse class="cls-2" cx="246.33" cy="256.59" rx="33.31" ry="33.53"/><ellipse class="cls-2" cx="349.72" cy="256.59" rx="33.31" ry="33.53"/><ellipse class="cls-2" cx="33.81" cy="370.47" rx="33.31" ry="33.53"/><ellipse class="cls-2" cx="153.28" cy="370.47" rx="33.31" ry="33.53"/><text class="cls-3" transform="matrix(.99 0 0 1 307.5 35.97)">2</text><text class="cls-3" transform="matrix(.99 0 0 1 242.89 262.37)">12</text><text class="cls-3" transform="matrix(.99 0 0 1 343.98 262.37)">25</text><text class="cls-3" transform="matrix(.99 0 0 1 28.07 376.25)">55</text><text class="cls-3" transform="matrix(.99 0 0 1 147.74 377.46)">70</text><path class="cls-4" d="M279.36 58.02l-57.44 55.49M328.76 59.75l79.83 50.3M289.12 62.07l-76.39 57.23M208.71 169.59l33.89 59.54M279.36 52.82L111.64 234.91M279.36 58.02l-57.44 55.49M274.19 133.17h-.57M279.36 58.02h-.57M221.92 113.51l56.87-55.49M212.73 166.7l26.42 56.65M85.79 286.36l-35.03 50.87M114.51 286.94l33.32 50.29M114.51 286.94l58.02 87.29M275.34 43c-35.15 0-70.65 31.37-70.65 62.43"/><path class="cls-5" d="M279.65 53.11l-66.63 66.47M335.36 52.53l73.52 57.81M446.79 164.1l43.65 65.9M405.43 166.41l-46.52 56.65M209 169.88l29.87 53.18M170.52 162.94l-59.17 71.68M119.97 279.71l27.57 57.23M74.59 277.98l-40.78 58.96"/><ellipse class="cls-1" cx="100.44" cy="256.59" rx="33.31" ry="33.53"/><text class="cls-3" transform="matrix(.99 0 0 1 94.7 262.37)">17</text><ellipse class="cls-1" cx="194.06" cy="139.24" rx="33.31" ry="33.53"/><ellipse class="cls-1" cx="424.96" cy="139.24" rx="33.31" ry="33.53"/><text class="cls-3" transform="matrix(.99 0 0 1 190.5 141.95)">7</text><text class="cls-3" transform="matrix(.99 0 0 1 419.22 145.02)">10</text><ellipse class="cls-2" cx="496.19" cy="256.59" rx="33.31" ry="33.53"/><text class="cls-3" transform="matrix(.99 0 0 1 490.67 262.27)">50</text><path fill="#fff" d="M245.47 325.09h26.42v10.98h-26.42z"/><text class="cls-7" transform="matrix(.99 0 0 1 420.06 23.33)"><tspan letter-spacing="-.03em">P</tspan><tspan x="7.02" y="0">a</tspan><tspan x="13.71" y="0" letter-spacing="-.01em">r</tspan><tspan x="18.11" y="0">e</tspan><tspan x="25.06" y="0" letter-spacing="0">n</tspan><tspan x="32.7" y="0">t node</tspan></text><text class="cls-7" transform="matrix(.99 0 0 1 419.87 45.33)">Child node</text><ellipse class="cls-1" cx="404.29" cy="17.55" rx="5.74" ry="6.07"/><ellipse class="cls-2" cx="404.29" cy="39.52" rx="5.74" ry="6.07"/></g></g></svg>
